X: 41534
T: Uncle Victor's Bendix
R: jig
M: 6/8
K: Dmajor
D2 G D2 G|ecA ece|dcB dcB|ddd G3|ddd gge|eed d3:|
DGG DGG|BGE BGE|EFG ABc|A2 A A2 A|GAG AAD|
G3 GFD|DdD DGD|{G}D6:|

